dist/svg/object-based/camera_64.svg

<svg xmlns="http://www.w3.org/2000/svg" viewBox="0 0 64 64"><path d="M22 14v-4H10v4H2v40h60V14H22zm38 38H4V16h56v36z"/><path d="M42 47c7.184 0 13-5.816 13-13s-5.816-13-13-13c-7.174 0-13 5.816-13 13s5.826 13 13 13zm0-24c6.065 0 11 4.935 11 11s-4.935 11-11 11-11-4.935-11-11 4.935-11 11-11z"/><path d="M42 41c3.867 0 7-3.133 7-7s-3.133-7-7-7c-3.863 0-7 3.133-7 7s3.137 7 7 7zm0-9c1.104 0 2 .896 2 2s-.896 2-2 2c-1.105 0-2-.896-2-2s.895-2 2-2z"/></svg>

<?xml version="1.0" encoding="utf-8"?>
<!-- Generator: Adobe Illustrator 17.1.0, SVG Export Plug-In . SVG Version: 6.00 Build 0)  -->
<!DOCTYPE svg PUBLIC "-//W3C//DTD SVG 1.1//EN" "http://www.w3.org/Graphics/SVG/1.1/DTD/svg11.dtd">
<svg version="1.1" id="Layer_1" xmlns="http://www.w3.org/2000/svg" xmlns:xlink="http://www.w3.org/1999/xlink" x="0px" y="0px"
	 width="64px" height="64px" viewBox="0 0 64 64" enable-background="new 0 0 64 64" xml:space="preserve">
<g>
	<path d="M22,14v-4H10v4H2v40h60V14H22z M60,52H4V16h56V52z"/>
	<path d="M42,47c7.184,0,13-5.816,13-13s-5.816-13-13-13c-7.174,0-13,5.816-13,13S34.826,47,42,47z M42,23c6.065,0,11,4.935,11,11
		s-4.935,11-11,11c-6.065,0-11-4.935-11-11S35.935,23,42,23z"/>
	<path d="M42,41c3.867,0,7-3.133,7-7s-3.133-7-7-7c-3.863,0-7,3.133-7,7S38.137,41,42,41z M42,32c1.104,0,2,0.896,2,2s-0.896,2-2,2
		c-1.105,0-2-0.896-2-2S40.895,32,42,32z"/>
</g>
</svg>
